X:25
M:C|
L:1/8
Q:1/2=75
K:F
ecd=B c2C2::g2 ec a2 fc|BGbg fed^c|
dAfd gebg|fed^c d2 DA/B/|cAaf dBbg|\
afef (g/f/e/d/) c2|dfBd cegb|afce f2F2:|

